svg/gamepad.svg

<svg xmlns="http://www.w3.org/2000/svg" viewBox="0 0 64 48" enable-background="new 0 0 64 48"><style type="text/css">.st0{fill:#333333;}</style><title>gamepad</title><desc>Created with Sketch.</desc><path class="st0" d="M48 0c-2.8 0-5.5.7-7.8 2h-16.4c-2.3-1.3-4.9-2-7.8-2-8.8 0-16 7.1-16 15.9 0 8.9 3.7 32.1 12.6 32.1 4.7 0 9.9-6.5 13.7-14h11.5c3.8 7.5 9 14 13.7 14 8.8 0 12.5-23.2 12.5-32.1 0-8.8-7.2-15.9-16-15.9zm3.4 44c-2.2 0-6.4-4.6-10.1-11.8l-1.1-2.2h-16.4l-1.1 2.2c-3.7 7.2-7.9 11.8-10.1 11.8-1.5 0-3.9-3.5-5.8-9.9-1.7-5.8-2.8-13.4-2.8-18.2 0-6.5 5.4-11.9 12-11.9 2.1 0 4.1.5 5.8 1.5l.9.5h18.5l.9-.5c1.8-1 3.8-1.5 5.9-1.5 6.6 0 12 5.4 12 11.9 0 4.8-1.1 12.3-2.8 18.2-1.9 6.4-4.3 9.9-5.8 9.9z"/><circle class="st0" cx="49" cy="13" r="2"/><circle class="st0" cx="49" cy="23" r="2"/><circle class="st0" cx="44" cy="18" r="2"/><circle class="st0" cx="54" cy="18" r="2"/><path class="st0" d="M22 16h-4v-4c0-1.1-.9-2-2-2s-2 .9-2 2v4h-4c-1.1 0-2 .9-2 2s.9 2 2 2h4v4c0 1.1.9 2 2 2s2-.9 2-2v-4h4c1.1 0 2-.9 2-2s-.9-2-2-2z"/></svg>

<svg xmlns="http://www.w3.org/2000/svg" viewBox="0 0 64 48"><style>.st0{fill:#333}</style><path class="st0" d="M48 0c-2.8 0-5.5.7-7.8 2H23.8C21.5.7 18.9 0 16 0 7.2 0 0 7.1 0 15.9 0 24.8 3.7 48 12.6 48c4.7 0 9.9-6.5 13.7-14h11.5c3.8 7.5 9 14 13.7 14C60.3 48 64 24.8 64 15.9 64 7.1 56.8 0 48 0zm3.4 44c-2.2 0-6.4-4.6-10.1-11.8L40.2 30H23.8l-1.1 2.2C19 39.4 14.8 44 12.6 44c-1.5 0-3.9-3.5-5.8-9.9C5.1 28.3 4 20.7 4 15.9 4 9.4 9.4 4 16 4c2.1 0 4.1.5 5.8 1.5l.9.5h18.5l.9-.5C43.9 4.5 45.9 4 48 4c6.6 0 12 5.4 12 11.9 0 4.8-1.1 12.3-2.8 18.2-1.9 6.4-4.3 9.9-5.8 9.9z"/><circle class="st0" cx="49" cy="13" r="2"/><circle class="st0" cx="49" cy="23" r="2"/><circle class="st0" cx="44" cy="18" r="2"/><circle class="st0" cx="54" cy="18" r="2"/><path class="st0" d="M22 16h-4v-4c0-1.1-.9-2-2-2s-2 .9-2 2v4h-4c-1.1 0-2 .9-2 2s.9 2 2 2h4v4c0 1.1.9 2 2 2s2-.9 2-2v-4h4c1.1 0 2-.9 2-2s-.9-2-2-2z"/></svg>
